svg/list.svg

<?xml version="1.0" encoding="UTF-8"?>
<svg xmlns="http://www.w3.org/2000/svg" xmlns:xlink="http://www.w3.org/1999/xlink" width="32" height="32" viewBox="0 0 32 32">
<path fill-rule="nonzero" fill="rgb(72.941176%, 72.941176%, 72.941176%)" fill-opacity="1" d="M 8.960938 18.113281 L 32 18.113281 L 32 22.976562 L 8.960938 22.976562 Z M 8.960938 9.054688 L 24.800781 9.054688 L 24.800781 13.921875 L 8.960938 13.921875 Z M 0 27.136719 L 5.28125 27.136719 L 5.28125 32 L 0 32 Z M 8.960938 0 L 32 0 L 32 4.863281 L 8.960938 4.863281 Z M 8.960938 27.136719 L 28.640625 27.136719 L 28.640625 32 L 8.960938 32 Z M 0 0 L 5.28125 0 L 5.28125 4.863281 L 0 4.863281 Z M 0 18.113281 L 5.28125 18.113281 L 5.28125 22.976562 L 0 22.976562 Z M 0 9.054688 L 5.28125 9.054688 L 5.28125 13.921875 L 0 13.921875 Z M 0 9.054688 "/>
</svg>

<svg role="img" viewBox="0 0 32 32" height="32" width="32" xmlns="http://www.w3.org/2000/svg"><path d="M8.96 18.113H32v4.864H8.96Zm0-9.058H24.8v4.867H8.96ZM0 27.137h5.281V32H0ZM8.96 0H32v4.863H8.96Zm0 27.137h19.68V32H8.96ZM0 0h5.281v4.863H0Zm0 18.113h5.281v4.864H0Zm0-9.058h5.281v4.867H0Zm0 0" fill="rgb(72.941176%, 72.941176%, 72.941176%)"/></svg>
